X:1
T:Is There One for Me?
T:Is There One for Me?
T:Theodore Frelinghuysen Seward
T:Harry Clayton, 1864
T:Public Domain Courtesy of the Cyber Hymnal™
C:Theodore Frelinghuysen Seward
Z:Public Domain
Z:Courtesy of the Cyber Hymnal™
%%score ( 1 2 ) ( 3 4 )
L:1/8
Q:1/4=100
M:6/8
K:G
V:1 treble 
V:2 treble 
V:3 bass 
V:4 bass 
V:1
 G2 G [GA]2 [GA] | [GB]2 [GB] [Bd]3 | [ce]2 [ce] [Bd]2 [GB] | [FA]2 [GB] [FA]3 | G2 G [GA]2 [GA] | %5
w: 1.~Man- sions are pre-|pared a- bove,|By the gra- cious|God of love;|Ma- ny will those|
w: 2.~Crowns that daz- zle|hu- man eye,|Wait for those who|reach the sky;|Ma- ny will those|
w: 3.~Robes of spot- less|white are giv’n,|By the glor- ious|King of Heav’n;|All can have them,|
w: 4.~Harps of sol- emn|sound a- bove,|Swell loud prais- es|to His love;|Oh! how sweet their|
 [GB]2 [GB] [Bd]3 | [ce]2 [ce] [Bd]2 [GB] | [FA]2 [FB] G3 ||"^Refrain" [Ec]2 [Ec] [Ec]2 [Ec] | %9
w: man- sions see—|Is there one pre-|pared for me?||
w: bright crowns be—|Is there one pre-|pared for me?||
w: they are free—|Is there one pre-|pared for me?||
w: sounds will be—|Is there one pre-|pared for me?||
 [Ec]3 [Ge]3 | [GB]2 [GB] [GB]2 [GB] | [GB]3 [Bd]3 | [FA]2 [FA] [Ac]2 [DF] | [EG]2 [FA] [GB]3 | %14
w: |||||
w: |||||
w: |||||
w: |||||
 [Ec]2 [Ec] [Ge]2 [Ac] | [GB]3 [FA]3 | G6 |] %17
w: |||
w: |||
w: |||
w: |||
V:2
 G2 G x3 | x6 | x6 | x6 | G2 G x3 | x6 | x6 | x3 G3 || x6 | x6 | x6 | x6 | x6 | x6 | x6 | x6 | %16
 G6 |] %17
V:3
 [G,B,]2 [G,B,] [G,C]2 [G,C] | [G,D]2 [G,D] [G,D]3 | [C,C]2 [C,C] G,2 [G,B,] | %3
w: ||* * Is *|
 [D,D]2 [D,D] [D,D]3 | [G,B,]2 [G,B,] [G,C]2 [G,C] | [G,D]2 [G,D] [G,D]3 | %6
w: |||
 [C,C]2 [C,C] G,2 [G,B,] | [D,C]2 [D,D] [G,B,]3 || [C,C]2 [C,C] [C,C]2 [C,C] | [C,C]6 | %10
w: * * there *||one for me? Is|there|
 [G,D]2 [G,D] [G,D]2 [G,D] | [G,D]6 | [D,D]2 [D,D] [D,D]2 [D,D] | [D,D]2 [D,D] [G,D]3 | %14
w: one for me? Ma-|ny|will those man- sions|see— Is there|
 [C,C]2 [C,C] [C,C]2 [C,E] | [D,D]3 [D,C]3 | [G,B,]6 |] %17
w: one pre- pared for|me? *||
V:4
 x6 | x6 | x3 G,2 x | x6 | x6 | x6 | x3 G,2 x | x6 || x6 | x6 | x6 | x6 | x6 | x6 | x6 | x6 | x6 |] %17

